X:2802
L:1/8
Q:1/8=160
M:9/8
K:D
 F2 A ABA ABA | F2 A ABA d2 f |"^5" F2 A ABA ABA | B2 B e2 d cBA :|"^9" f2 a f2 a fed | 
 f2 a f2 a g2 e |"^13" f2 a f2 a fed | g2 f e2 d cBA :|"^17" f2 z a2 z d2 z | g2 f e2 d cBA | 
"^21" f2 z e2 z d2 z | B2 B A2 G FED :|

